X:1
T:The Hour of My Departure
T:The Hour of My Departure
T:J. H. Tenney; arr., pub.1911
T:Mrs. E. W. Chapman
T:PUBLIC DOMAIN
T:PUBLIC DOMAIN
C:J. H. Tenney; arr., pub.1911
Z:Mrs. E. W. Chapman
Z:PUBLIC DOMAIN
%%score ( 1 2 ) ( 3 4 )
L:1/8
Q:1/4=100
M:4/4
K:Db
V:1 treble nm="Treble"
V:2 treble 
V:3 bass nm="Bass"
V:4 bass 
V:1
 [FA]2 | [FA]2 [FA]2 [GB]2 [FA]2 | [FA]2 [DF]4 [DA]2 | [CG]4 [CA]4 | [DF]6 [FA]2 | %5
w: 1.~The|hour of my de-|part- ure I|may not|know, But|
w: 2.~The|hour of my de-|part- ure I’ll|keep in|view, And|
w: 3.~The|hour of my de-|part- ure May|soon be|here; To|
 [FA]2 [FA]2 [GB]2 [FA]2 | [FA]2 [DF]4 | [FA]2 | [GB]2 [GB]2 [Gd]2 [GB]2 | [FA]6 [FA]2 | %10
w: Christ in love hath|taught me|To|watch while here be-|low, My|
w: strive, while here I|lin- ger,|Some|pre- cious work to|do, Some|
w: me the thought is|joy- ful,|And|yon- der light is|clear; I|
 [EG]2 [EG]2 [CA]2 [EG]2 | [EG]2 [DF]4 [DF]2 | [DE]4 [D=G]4 | A6 | [GA]2 | %15
w: lamp to keep bright|burn- ing With|oil di-|vine,|That|
w: ser- vice for the|Mas- ter, Or|cross to|bear,|That|
w: see the sun- lit|moun- tains Where|I shall|stand,|I|
 [FA]2 [Fd]2 [Af]2 [Ad]2 | [Ac]2 [GB]4 [GB]2 | [FA]2 [Fd]2 [Fd]2 [Gc]2 | [Fd]6 ||"^Refrain" [FA]2 | %20
w: at the Lord’s ap-|pear- ing, My|soul with grace may|shine.|The|
w: I a crown un-|fad- ing, And|robe of white may|wear.||
w: hear the songs en-|chant- ing Of|yon ce- les- tial|band.||
 [FA]2 [FA]2 [GB]2 [FA]2 | [FA]2 [DF]4 | [DA]2 | [CG]4 [CA]4 | [DF]6 [FA]2 | %25
w: hour of my de-|part- ure|My|Sav- ior|knows, And,|
w: |||||
w: |||||
 [FA]2 [Fd]2 [Af]2 [Ad]2 | [Ac]2 [GB]4 [GB]2 | [FA]2 [Fd]2 [Fd]2 [Gc]2 | [Fd]6 |] %29
w: in His love con-|fid- ing, I|dwell in sweet re-|pose.|
w: ||||
w: ||||
V:2
 x2 | x8 | x8 | x8 | x8 | x8 | x6 | x2 | x8 | x8 | x8 | x8 | x8 | (C4 G2) | z2 | x8 | x8 | x8 | %18
 x6 || x2 | x8 | x6 | x2 | x8 | x8 | x8 | x8 | x8 | x6 |] %29
V:3
 [D,D]2 | [D,D]2 [D,D]2 [D,D]2 [D,D]2 | [D,D]2 [D,A,]4 [F,A,]2 | [E,A,]4 [A,,A,]4 | %4
 [D,A,]6 [D,D]2 | [D,D]2 [D,D]2 [D,D]2 [D,D]2 | [D,D]2 [D,A,]4 | [D,D]2 | %8
 [G,D]2 [G,D]2 [G,B,]2 [G,D]2 | [D,D]6 [D,A,]2 | [A,,A,]2 [A,,A,]2 [A,,A,]2 [A,,A,]2 | %11
 [D,A,]2 [D,A,]4 [D,A,]2 | [E,=G,]4 [E,B,]4 | (A,4 C2) | [A,,C]2 | [D,D]2 [D,A,]2 [D,D]2 [F,D]2 | %16
 [G,D]2 [G,D]4 [G,D]2 | [A,D]2 A,2 [A,,A,]2 [A,,A,]2 | [D,A,]6 || [D,D]2 | %20
 [D,D]2 [D,D]2 [D,D]2 [D,D]2 | [D,D]2 [D,A,]4 | [F,A,]2 | [E,A,]4 [A,,A,]4 | [D,A,]6 [D,D]2 | %25
 [D,D]2 [D,A,]2 [D,D]2 [F,D]2 | [G,D]2 [G,D]4 [G,D]2 | [A,D]2 A,2 [A,,A,]2 [A,,A,]2 | [D,A,]6 |] %29
V:4
 x2 | x8 | x8 | x8 | x8 | x8 | x6 | x2 | x8 | x8 | x8 | x8 | x8 | A,,6 | z2 | x8 | x8 | z2 A,2 z4 | %18
 x6 || x2 | x8 | x6 | x2 | x8 | x8 | x8 | x8 | z2 A,2 z4 | x6 |] %29

